dist/img/bottle.svg

<svg width="108" height="155" viewBox="0 0 108 155" fill="none" xmlns="http://www.w3.org/2000/svg">
<path d="M98.3971 20.4298L101.338 15.1866L89.8806 8.816L86.9398 14.0592C86.2923 15.2224 84.9613 15.8129 83.6573 15.5624C72.182 13.3524 60.0952 18.533 54.0877 29.2342L2.92553 120.391C-0.968519 127.325 2.7007 136.058 10.3899 138.179L19.9676 140.818C21.8652 141.346 23.6188 142.312 25.0577 143.646L32.3422 150.374C38.1968 155.778 47.5856 154.302 51.4797 147.368L102.642 56.2108C108.649 45.5096 106.743 32.5447 98.8288 23.9909C97.9384 23.0246 97.7496 21.5841 98.3971 20.4298Z" fill="#F0EFED"/>
<path d="M40.6969 155C37.2795 155 33.988 153.729 31.4249 151.367L24.1404 144.639C22.8544 143.458 21.2896 142.581 19.6079 142.116L10.0301 139.476C5.96521 138.358 2.6917 135.486 1.06393 131.611C-0.563831 127.737 -0.312022 123.406 1.73842 119.738L52.9096 28.581C59.0609 17.6114 71.5255 11.8581 83.9091 14.2382C84.6555 14.3813 85.4019 14.0503 85.7617 13.4061L89.3679 6.99072L103.181 14.6677L99.5752 21.083C99.2155 21.7272 99.3144 22.5325 99.836 23.0872C108.38 32.33 109.989 45.9033 103.829 56.8729L52.6668 148.03C50.6073 151.698 47.0371 154.177 42.8642 154.83C42.1448 154.946 41.4163 155 40.6969 155ZM78.3333 16.3945C68.8815 16.3945 60.0052 21.4409 55.2658 29.8963L4.10363 121.044C2.44888 123.988 2.25103 127.46 3.55504 130.573C4.85905 133.687 7.48506 135.987 10.7496 136.89L20.3273 139.53C22.4317 140.111 24.3832 141.194 25.975 142.67L33.2595 149.399C35.7416 151.689 39.0871 152.709 42.4325 152.182C45.778 151.654 48.6468 149.667 50.3016 146.724L101.464 55.5666C107.049 45.617 105.592 33.2963 97.8395 24.9125C96.5355 23.4988 96.2837 21.4409 97.21 19.7767L99.4943 15.7056L90.3932 10.6502L88.1089 14.7213C87.1826 16.3766 85.276 17.2445 83.3875 16.8866C81.7058 16.5556 80.006 16.3945 78.3333 16.3945Z" fill="black"/>
<path d="M91.0497 79.6353L88.6934 78.329C88.5855 78.5259 88.5945 78.7048 88.6035 78.7585C88.1988 77.13 80.3927 70.8579 66.813 63.3151C53.2333 55.7635 43.7725 52.4529 42.1717 52.9539C42.2167 52.936 42.3786 52.8555 42.4865 52.6497L40.1303 51.3434C40.8317 50.0908 42.5405 49.3481 50.2386 52.3276C55.2388 54.2603 61.588 57.3293 68.126 60.9619C74.6641 64.5946 80.6176 68.3705 84.8983 71.5826C91.4993 76.5395 91.7511 78.3827 91.0497 79.6353Z" fill="black"/>
<path d="M74.79 108.598L72.4338 107.292C72.3259 107.489 72.3349 107.668 72.3439 107.721C71.9392 106.093 64.1331 99.8209 50.5534 92.2781C36.9737 84.7354 27.5129 81.4159 25.9031 81.9259C25.948 81.908 26.1099 81.8275 26.2178 81.6217L23.8616 80.3154C24.5631 79.0627 26.2718 78.3201 33.97 81.2996C38.9702 83.2322 45.3194 86.3012 51.8574 89.9339C58.3954 93.5666 64.3489 97.3424 68.6297 100.555C75.2397 105.511 75.4915 107.346 74.79 108.598Z" fill="black"/>
<path d="M11.2712 128.444L15.0663 137.892C17.3236 143.52 24.0235 147.243 30.0309 146.205L40.2742 144.433" fill="#F0EFED"/>
<path d="M28.0075 147.726C22.063 147.726 16.0106 143.878 13.8163 138.393L10.0211 128.945C9.74235 128.256 10.0841 127.478 10.7766 127.2C11.469 126.923 12.2514 127.263 12.5302 127.952L16.3254 137.4C18.3578 142.465 24.4012 145.82 29.8061 144.889L40.0494 143.118C40.7868 142.992 41.4793 143.476 41.6142 144.209C41.7401 144.943 41.2544 145.632 40.517 145.757L30.2738 147.529C29.5094 147.663 28.7629 147.726 28.0075 147.726Z" fill="black"/>
<path d="M91.8321 1.49697C92.1468 0.933274 95.7081 2.31119 99.782 4.5749C103.856 6.83861 106.905 9.12917 106.59 9.69286L101.716 18.3719C101.599 18.5777 101.311 18.6046 101.158 18.4167C100.376 17.4593 97.7946 15.6519 94.575 13.8624C91.3465 12.0729 88.4417 10.8292 87.2186 10.6771C86.9758 10.6502 86.8499 10.3908 86.9668 10.176L91.8321 1.49697Z" fill="#F0EFED"/>
<path d="M101.419 19.884C100.915 19.884 100.43 19.6604 100.106 19.2577C99.5212 18.5419 97.21 16.8598 93.9095 15.0256C90.609 13.1913 87.956 12.1176 87.0387 11.9924C86.4811 11.9208 85.9955 11.5808 85.7437 11.0797C85.4919 10.5787 85.5009 9.99707 85.7797 9.50496L90.654 0.816955C91.4634 -0.62359 93.5228 0.172736 94.8898 0.700637C96.4456 1.30012 98.4151 2.2575 100.439 3.37593C108.991 8.12705 108.191 9.5497 107.759 10.3192L102.885 19.0072C102.615 19.4904 102.111 19.8125 101.554 19.8572C101.518 19.884 101.464 19.884 101.419 19.884ZM88.7744 9.68391C90.627 10.2923 93.1631 11.545 95.2225 12.6813C97.2819 13.8266 99.6831 15.3208 101.176 16.5645L105.043 9.67496C104.324 8.99495 102.435 7.5723 99.1255 5.73807C95.8161 3.89489 93.6037 3.04488 92.6505 2.79435L88.7744 9.68391Z" fill="black"/>
</svg>

<svg width="108" height="155" fill="none" xmlns="http://www.w3.org/2000/svg"><path d="M98.397 20.43l2.941-5.243-11.457-6.371-2.941 5.243c-.648 1.163-1.979 1.754-3.283 1.503-11.475-2.21-23.562 2.971-29.57 13.672l-51.16 91.157c-3.895 6.934-.225 15.667 7.464 17.788l9.578 2.639a12.362 12.362 0 015.09 2.828l7.284 6.728c5.855 5.404 15.244 3.928 19.138-3.006l51.162-91.157c6.007-10.701 4.101-23.666-3.813-32.22a3.059 3.059 0 01-.432-3.561z" fill="#F0EFED"/><path d="M40.697 155a13.636 13.636 0 01-9.272-3.633l-7.285-6.728a11.118 11.118 0 00-4.532-2.523l-9.578-2.64a13.576 13.576 0 01-8.966-7.865c-1.628-3.874-1.376-8.205.674-11.873L52.91 28.581c6.15-10.97 18.615-16.723 31-14.343.746.143 1.492-.188 1.852-.832l3.606-6.415 13.813 7.677-3.606 6.415c-.36.644-.26 1.45.261 2.004 8.544 9.243 10.153 22.816 3.993 33.786L52.667 148.03a13.577 13.577 0 01-9.803 6.8c-.72.116-1.448.17-2.167.17zM78.333 16.394c-9.451 0-18.328 5.047-23.067 13.502L4.104 121.044a10.803 10.803 0 00-.549 9.529c1.304 3.114 3.93 5.414 7.195 6.317l9.577 2.64a13.69 13.69 0 015.648 3.14l7.285 6.729a10.948 10.948 0 009.172 2.783 10.923 10.923 0 007.87-5.458l51.162-91.157a26.168 26.168 0 00-3.624-30.654 4.397 4.397 0 01-.63-5.136l2.284-4.071-9.1-5.056-2.285 4.071c-.926 1.656-2.833 2.523-4.721 2.166a26.222 26.222 0 00-5.055-.492z" fill="#000"/><path d="M91.05 79.635l-2.357-1.306a.714.714 0 00-.09.43c-.404-1.629-8.21-7.901-21.79-15.444-13.58-7.551-23.04-10.862-24.641-10.361a.656.656 0 00.315-.304l-2.357-1.307c.702-1.252 2.41-1.995 10.109.985 5 1.932 11.349 5.001 17.887 8.634s12.492 7.409 16.772 10.62c6.601 4.958 6.853 6.8 6.152 8.053zm-16.26 28.963l-2.356-1.306a.713.713 0 00-.09.429c-.405-1.628-8.21-7.9-21.79-15.443-13.58-7.543-23.041-10.862-24.65-10.352a.656.656 0 00.314-.304l-2.356-1.307c.701-1.252 2.41-1.995 10.108.985 5 1.932 11.35 5.001 17.887 8.634 6.538 3.633 12.492 7.408 16.773 10.621 6.61 4.956 6.862 6.791 6.16 8.043z" fill="#000"/><path d="M11.271 128.444l3.795 9.448c2.258 5.628 8.957 9.351 14.965 8.313l10.243-1.772" fill="#F0EFED"/><path d="M28.008 147.726c-5.945 0-11.997-3.848-14.192-9.333l-3.795-9.448a1.34 1.34 0 01.756-1.745 1.352 1.352 0 011.753.752l3.795 9.448c2.033 5.065 8.076 8.42 13.481 7.489l10.243-1.771a1.353 1.353 0 011.565 1.091 1.334 1.334 0 01-1.097 1.548l-10.243 1.772a13.03 13.03 0 01-2.267.197z" fill="#000"/><path d="M91.832 1.497c.315-.564 3.876.814 7.95 3.078s7.123 4.554 6.808 5.118l-4.874 8.679a.338.338 0 01-.558.045c-.782-.958-3.363-2.765-6.583-4.555-3.228-1.79-6.133-3.033-7.356-3.185a.334.334 0 01-.252-.501l4.865-8.679z" fill="#F0EFED"/><path d="M101.419 19.884c-.504 0-.989-.224-1.313-.626-.585-.716-2.896-2.398-6.197-4.232-3.3-1.835-5.953-2.908-6.87-3.034a1.686 1.686 0 01-1.295-.912 1.658 1.658 0 01.036-1.575L90.654.817c.81-1.44 2.869-.644 4.236-.116 1.556.6 3.525 1.556 5.549 2.675 8.552 4.751 7.752 6.174 7.32 6.943l-4.874 8.688c-.27.483-.774.805-1.331.85-.036.027-.09.027-.135.027zm-12.645-10.2c1.853.608 4.39 1.861 6.448 2.997 2.06 1.146 4.461 2.64 5.954 3.883l3.867-6.889c-.719-.68-2.608-2.103-5.918-3.937-3.309-1.843-5.521-2.693-6.475-2.944l-3.876 6.89z" fill="#000"/></svg>
